front/public/static/landing/logos/gray/Alma.svg

<svg fill="none" height="240" viewBox="0 0 600 240" width="600" xmlns="http://www.w3.org/2000/svg" xmlns:xlink="http://www.w3.org/1999/xlink"><mask id="a" height="90" maskUnits="userSpaceOnUse" width="318" x="141" y="75"><path d="m458.906 75h-317.812v90h317.812z" fill="#fff"/></mask><g mask="url(#a)"><path d="m423.24 148.024c-9.799 0-17.749-8.329-17.749-18.618 0-10.29 7.95-18.619 17.749-18.619s17.738 8.341 17.738 18.607c0 10.267-7.951 18.619-17.738 18.619zm17.738-52.5126v9.4506c-2.577-3.47-5.918-6.2868-9.762-8.2244-3.84-1.9376-8.077-2.9434-12.371-2.9377-17.625 0-31.279 15.9451-31.279 35.5941 0 19.651 13.643 35.606 31.279 35.606 4.601-.002 9.131-1.157 13.178-3.362 4.05-2.206 7.499-5.392 10.031-9.273v10.935h16.818v-67.7774zm-205.424-18.789h17.939v86.5776h-17.939zm38.558 48.1386c0-18.63 11.312-31.0611 26.998-31.0611 9.732 0 17.412 4.3743 22.054 11.8191 4.642-7.4448 12.333-11.8191 22.065-11.8191 15.696 0 26.998 12.4661 26.998 31.0611v38.439h-17.939v-40.388c0-7.264-4.765-12.012-11.077-12.012s-11.078 4.748-11.078 12.012v40.388h-17.939v-40.388c0-7.264-4.765-12.012-11.077-12.012s-11.078 4.748-11.078 12.012v40.388h-17.938zm-71.039-28.636c-4.249-16.0804-13.219-21.225-21.774-21.225-8.554 0-17.524 5.1446-21.762 21.225l-18.443 67.075h18.174c1.212-4.982 4.041-9.41 8.036-12.576 3.995-3.165 8.925-4.885 14.001-4.885s10.006 1.72 14.001 4.885c3.995 3.166 6.825 7.594 8.036 12.576h18.175zm-21.774 33.996c-5.51-.027-10.828 2.049-14.889 5.814l10.405-39.0281c.998-3.7283 2.467-4.9182 4.484-4.9182 2.019 0 3.499 1.1333 4.485 4.9182l10.416 39.0401c-4.063-3.771-9.385-5.851-14.901-5.826z" fill="#364153"/></g></svg>

<svg width="600" height="240" viewBox="0 0 600 240" fill="none" xmlns="http://www.w3.org/2000/svg">
<mask id="mask0_1904_3298" style="mask-type:luminance" maskUnits="userSpaceOnUse" x="141" y="75" width="318" height="90">
<path d="M458.906 75H141.094V165H458.906V75Z" fill="white"/>
</mask>
<g mask="url(#mask0_1904_3298)">
<path d="M423.24 148.024C413.441 148.024 405.491 139.695 405.491 129.406C405.491 119.116 413.441 110.787 423.24 110.787C433.039 110.787 440.978 119.128 440.978 129.394C440.978 139.661 433.027 148.013 423.24 148.013V148.024ZM440.978 95.5114V104.962C438.401 101.492 435.06 98.6752 431.216 96.7376C427.376 94.8 423.139 93.7942 418.845 93.7999C401.22 93.7999 387.566 109.745 387.566 129.394C387.566 149.045 401.209 165 418.845 165C423.446 164.998 427.976 163.843 432.023 161.638C436.073 159.432 439.522 156.246 442.054 152.365V163.3H458.872V95.5226L440.978 95.5114ZM235.554 76.7224H253.493V163.3H235.554V76.7224ZM274.112 124.861C274.112 106.231 285.424 93.7999 301.11 93.7999C310.842 93.7999 318.522 98.1742 323.164 105.619C327.806 98.1742 335.497 93.7999 345.229 93.7999C360.925 93.7999 372.227 106.266 372.227 124.861V163.3H354.288V122.912C354.288 115.648 349.523 110.9 343.211 110.9C336.899 110.9 332.133 115.648 332.133 122.912V163.3H314.194V122.912C314.194 115.648 309.429 110.9 303.117 110.9C296.805 110.9 292.039 115.648 292.039 122.912V163.3H274.101L274.112 124.861ZM203.073 96.225C198.824 80.1446 189.854 75 181.299 75C172.745 75 163.775 80.1446 159.537 96.225L141.094 163.3H159.268C160.48 158.318 163.309 153.89 167.304 150.724C171.299 147.559 176.229 145.839 181.305 145.839C186.381 145.839 191.311 147.559 195.306 150.724C199.301 153.89 202.131 158.318 203.342 163.3H221.517L203.073 96.225ZM181.299 130.221C175.789 130.194 170.471 132.27 166.41 136.035L176.815 97.0069C177.813 93.2786 179.282 92.0887 181.299 92.0887C183.318 92.0887 184.798 93.222 185.784 97.0069L196.2 136.047C192.137 132.276 186.815 130.196 181.299 130.221Z" fill="#364153"/>
</g>
</svg>
